X: 1
T: la Moquine
C: Claude M\'eth\'e
%D:
R: reel
S: Fiddle Hell Online 2022-010-25 handout
Z: 2022 John Chambers <jc:trillian.mit.edu>
M: C|
L: 1/8
K: D
"^A"
|:\
"D"fefa- aafe | dcdf- ffdA | "G"BABf- ffBf | .fedf [1,3 "A"e4 :|[2,4 "A"ec"D"d2 "^B":: "G"GFGB- BBGA |
BABd "A"c2A2 | [1,3 "D"FEFA- AAFA | dAFA BAFD :|[2,4 "D"dcdf- ffde | fa"A"ge "D"d4 :|
